X:108
T:Maiden Lane
M:C|
L:1/8
K:A
"A (D)"e3 d cB A2 | a2 g2 a2 e2 | a2 g2 a2 ed | c2 B2 A4 |"F#m (A)"e3 d cB A2 | a2 g2 a2 e2 | a2 g2 a2 ed | c2 B2 A4 :| 
|:"Bm (G)"Bcde f2 B2 | d2 c2 B2 f2 |f2 f2 f2 ed | "F#m"cBcd "Bm"B4 :|
|:"A" e2 cd e2 cd | edcB c2 A2 | "A"e2 cd"D" efed |"E" c2 B2 "A"A4 :||
